X: 37278
T: Skin The Peelers
R: slip jig
M: 9/8
K: Cmajor
|:"C"E2E EDE C2D|"^am"E2E EDE GED|"C"E2E EDE C2D|"^am"E2A A2E cBA:|
|:"^am"E2A, A,2B, C2D|E2A A2E GED|EGA A2B c2d|e2d cBA cBA:|

